src/topics/icons/autoit.svg

<svg height="256" preserveAspectRatio="xMidYMid" viewBox="0 0 256 256" width="256" xmlns="http://www.w3.org/2000/svg"><circle cx="128" cy="128" fill="#5d83ac" r="114.75"/><g fill="#f0f0f0"><path d="m0 128c0-70.6925 57.3075-128 128-128s128 57.3075 128 128-57.3075 128-128 128-128-57.3075-128-128zm128-102.5c-56.60925 0-102.5 45.89075-102.5 102.5s45.89075 102.5 102.5 102.5 102.5-45.89075 102.5-102.5-45.89075-102.5-102.5-102.5z"/><path d="m206.4105 166-58.52-84.7c-2.05425-2.986-4.55-5.48175-7.49-7.49-2.94-2.006-6.60425-3.01-10.99-3.01-4.57425 0-8.35425 1.074-11.34 3.22-2.98825 2.148-5.46 4.574-7.42 7.28l-60.06 84.7h34.3l43.96-62.16 16.8 24.78c1.58575 2.24 3.24175 4.644 4.97 7.21 1.72575 2.56825 3.24175 4.69 4.55 6.37-2.24-.186-4.87825-.28-7.91-.28h-8.75-23.52l-17.5 24.08z"/></g></svg>

<?xml version="1.0" encoding="UTF-8" standalone="no"?>
<svg width="256px" height="256px" viewBox="0 0 256 256" version="1.1" xmlns="http://www.w3.org/2000/svg" xmlns:xlink="http://www.w3.org/1999/xlink" preserveAspectRatio="xMidYMid">
	<g>
		<circle fill="#5D83AC" cx="128" cy="128" r="114.75"></circle>
		<path d="M0,128 C0,57.3075 57.3075,0 128,0 C198.6925,0 256,57.3075 256,128 C256,198.6925 198.6925,256 128,256 C57.3075,256 0,198.6925 0,128 Z M128,25.5 C71.39075,25.5 25.5,71.39075 25.5,128 C25.5,184.60925 71.39075,230.5 128,230.5 C184.60925,230.5 230.5,184.60925 230.5,128 C230.5,71.39075 184.60925,25.5 128,25.5 L128,25.5 Z" fill="#F0F0F0"></path>
		<path d="M206.4105,166 L147.8905,81.3 C145.83625,78.314 143.3405,75.81825 140.4005,73.81 C137.4605,71.804 133.79625,70.8 129.4105,70.8 C124.83625,70.8 121.05625,71.874 118.0705,74.02 C115.08225,76.168 112.6105,78.594 110.6505,81.3 L50.5905,166 L84.8905,166 L128.8505,103.84 L145.6505,128.62 C147.23625,130.86 148.89225,133.264 150.6205,135.83 C152.34625,138.39825 153.86225,140.52 155.1705,142.2 C152.9305,142.014 150.29225,141.92 147.2605,141.92 L138.5105,141.92 L114.9905,141.92 L97.4905,166 L206.4105,166 L206.4105,166 Z" fill="#F0F0F0"></path>
	</g>
</svg>
